assets/icons/drive/harddisk-warning.svg

<?xml version="1.0" encoding="UTF-8" standalone="no"?>
<svg viewBox="0 0 24 24" height="24" width="24" version="1.1" id="svg10" sodipodi:docname="harddisk-warning.svg" inkscape:version="1.2 (1:1.2.1+202207142221+cd75a1ee6d)"
   xmlns:inkscape="http://www.inkscape.org/namespaces/inkscape"
   xmlns:sodipodi="http://sodipodi.sourceforge.net/DTD/sodipodi-0.dtd"
   xmlns="http://www.w3.org/2000/svg"
   xmlns:svg="http://www.w3.org/2000/svg">
   <defs id="defs14" />
   <sodipodi:namedview id="namedview12" pagecolor="#ffffff" bordercolor="#666666" borderopacity="1.0" inkscape:pageshadow="2" inkscape:pageopacity="0.0" inkscape:pagecheckerboard="0" showgrid="true" inkscape:snap-page="true" inkscape:zoom="21.194089" inkscape:cx="14.909818" inkscape:cy="15.924252" inkscape:window-width="1846" inkscape:window-height="1016" inkscape:window-x="0" inkscape:window-y="0" inkscape:window-maximized="1" inkscape:current-layer="svg10" inkscape:snap-grids="false" inkscape:showpageshadow="2" inkscape:deskcolor="#d1d1d1">
      <inkscape:grid type="xygrid" id="grid957" />
      <inkscape:grid type="xygrid" id="grid825" dotted="true" spacingx="0.5" spacingy="0.5" empspacing="10" />
   </sodipodi:namedview>
   <path id="path1416" style="fill:#808080;fill-rule:evenodd;stroke-width:0.5;stroke-linecap:round;fill-opacity:1" d="M 7.4550781 2 C 6.4865012 2.0089807 5.7372567 2.0732709 5.1171875 2.4453125 C 4.703808 2.6933404 4.3972492 3.101222 4.2285156 3.6074219 C 4.0597825 4.1136218 4 4.7222262 4 5.5 L 4 18.5 C 4 19.277773 4.0597828 19.88638 4.2285156 20.392578 C 4.3972492 20.89878 4.703808 21.30666 5.1171875 21.554688 C 5.9439465 22.050742 7.0000075 22 8.5 22 L 12 22 L 12 21 L 8.5 21 C 7.0000075 21 6.0560474 20.94925 5.6328125 20.695312 C 5.421195 20.568346 5.2902497 20.413719 5.1777344 20.076172 C 5.065219 19.738625 5 19.222217 5 18.5 L 5 5.5 C 5 4.7777813 5.0652194 4.2613742 5.1777344 3.9238281 C 5.2902497 3.5862825 5.421195 3.4316581 5.6328125 3.3046875 C 6.0560474 3.0507468 7.0000075 3 8.5 3 L 15.5 3 C 16.999994 3 17.943952 3.0507472 18.367188 3.3046875 C 18.578803 3.4316581 18.70975 3.5862825 18.822266 3.9238281 C 18.934781 4.2613742 19 4.7777813 19 5.5 L 19 13 L 20 13 L 20 5.5 C 20 4.7222262 19.94022 4.1136218 19.771484 3.6074219 C 19.602754 3.101222 19.296194 2.6933404 18.882812 2.4453125 C 18.056054 1.9492572 16.999994 2 15.5 2 L 8.5 2 C 8.1250019 2 7.7779372 1.9970064 7.4550781 2 z M 11.925781 9 C 11.29458 9.0092793 10.67063 9.1385827 10.085938 9.3808594 C 7.7675968 10.341169 6.5201574 12.871143 7.1699219 15.294922 C 7.7625568 17.504898 9.7653623 18.996177 12 18.994141 L 12 17.996094 C 10.212863 17.997093 8.6107438 16.80256 8.1367188 15.035156 C 7.6172513 13.096591 8.6147544 11.07318 10.46875 10.304688 C 12.033073 9.6607706 13.833347 10.070565 14.964844 11.328125 L 14.146484 12.146484 L 14.853516 12.853516 L 16.353516 11.353516 L 15.669922 10.623047 C 14.773296 9.6436284 13.523887 9.0610879 12.197266 9.0039062 C 12.106921 9.0003385 12.015953 8.9986744 11.925781 9 z M 12 12 A 2 2 0 0 0 10 14 A 2 2 0 0 0 12 16 L 12 15 A 1 1 0 0 1 11 14 A 1 1 0 0 1 12 13 L 13 13 L 13.732422 13 A 2 2 0 0 0 12 12 z " />
   <path id="path1329" style="color:#000000;fill:#808080;fill-opacity:1;stroke-width:1px;stroke-linejoin:round;-inkscape-stroke:none" d="m 17.499424,14 a 0.50005,0.50005 0 0 0 -0.433594,0.251953 l -4,7 A 0.50005,0.50005 0 0 0 13.499424,22 h 8 a 0.50005,0.50005 0 0 0 0.433594,-0.748047 l -4,-7 A 0.50005,0.50005 0 0 0 17.499424,14 Z m -0.5,2 h 1 v 2 l -0.199219,1 h -0.601562 l -0.199219,-1 z m 0.5,4 a 0.5,0.5 0 0 1 0.5,0.5 0.5,0.5 0 0 1 -0.5,0.5 0.5,0.5 0 0 1 -0.5,-0.5 0.5,0.5 0 0 1 0.5,-0.5 z" />
</svg>

<svg height="24" width="24" xmlns="http://www.w3.org/2000/svg"><path style="fill:gray;stroke-width:.5;stroke-linecap:round;fill-opacity:1" d="M7.455 2c-.968.009-1.718.073-2.338.445-.413.248-.72.656-.888 1.162C4.059 4.114 4 4.722 4 5.5v13c0 .778.06 1.386.229 1.893.168.506.475.914.888 1.162C5.944 22.05 7 22 8.5 22H12v-1H8.5c-1.5 0-2.444-.05-2.867-.305-.212-.127-.343-.281-.455-.619C5.065 19.74 5 19.222 5 18.5v-13c0-.722.065-1.239.178-1.576.112-.338.243-.492.455-.62C6.056 3.052 7 3 8.5 3h7c1.5 0 2.444.05 2.867.305.212.127.343.281.455.619.113.337.178.854.178 1.576V13h1V5.5c0-.778-.06-1.386-.229-1.893-.168-.506-.475-.914-.888-1.162C18.056 1.95 17 2 15.5 2h-7c-.375 0-.722-.003-1.045 0zm4.47 7a5 5 0 0 0-4.756 6.295 4.996 4.996 0 0 0 4.831 3.7v-.999a3.999 3.999 0 0 1-1.531-7.691 4 4 0 0 1 4.496 1.023l-.819.818.708.708 1.5-1.5-.684-.731A5 5 0 0 0 11.926 9zM12 12a2 2 0 0 0-2 2 2 2 0 0 0 2 2v-1a1 1 0 0 1-1-1 1 1 0 0 1 1-1h1.732A2 2 0 0 0 12 12z"/><path style="color:#000;fill:gray;fill-opacity:1;stroke-width:1px;stroke-linejoin:round;-inkscape-stroke:none" d="M17.5 14a.5.5 0 0 0-.434.252l-4 7a.5.5 0 0 0 .433.748h8a.5.5 0 0 0 .434-.748l-4-7a.5.5 0 0 0-.434-.252zm-.5 2h1v2l-.2 1h-.6l-.2-1zm.5 4a.5.5 0 0 1 .5.5.5.5 0 0 1-.5.5.5.5 0 0 1-.5-.5.5.5 0 0 1 .5-.5z"/></svg>
